actions/symbolic/view-list-images-symbolic.svg

<?xml version="1.0" encoding="UTF-8" standalone="no"?>
<svg
   xmlns:dc="http://purl.org/dc/elements/1.1/"
   xmlns:cc="http://creativecommons.org/ns#"
   xmlns:rdf="http://www.w3.org/1999/02/22-rdf-syntax-ns#"
   xmlns:svg="http://www.w3.org/2000/svg"
   xmlns="http://www.w3.org/2000/svg"
   xmlns:sodipodi="http://sodipodi.sourceforge.net/DTD/sodipodi-0.dtd"
   xmlns:inkscape="http://www.inkscape.org/namespaces/inkscape"
   viewBox="0 0 16 16"
   id="svg3782"
   version="1.1"
   inkscape:version="0.91 r13725"
   sodipodi:docname="view-list-images-symbolic.svg">
  <metadata
     id="metadata3790">
    <rdf:RDF>
      <cc:Work
         rdf:about="">
        <dc:format>image/svg+xml</dc:format>
        <dc:type
           rdf:resource="http://purl.org/dc/dcmitype/StillImage" />
      </cc:Work>
    </rdf:RDF>
  </metadata>
  <sodipodi:namedview
     pagecolor="#ffffff"
     bordercolor="#666666"
     borderopacity="1"
     objecttolerance="10"
     gridtolerance="10"
     guidetolerance="10"
     inkscape:pageopacity="0"
     inkscape:pageshadow="2"
     inkscape:window-width="640"
     inkscape:window-height="480"
     id="namedview3788"
     showgrid="false"
     inkscape:zoom="39.8125"
     inkscape:cx="4.0816327"
     inkscape:cy="8"
     inkscape:current-layer="svg3782" />
  <defs
     id="defs3051">
    <style
       type="text/css"
       id="current-color-scheme">
      .ColorScheme-Text {
        color:#bebebe;
      }
      </style>
  </defs>
  <path
     style="color:#bebebe;fill:currentColor;fill-opacity:1;stroke:none"
     class="ColorScheme-Text"
     d="M 6.4002198,3 C 6.1793704,3 5.9641323,3.071029 5.7537107,3.2132162 5.5433039,3.3554979 5.3974738,3.5247496 5.3183067,3.7210286 l -0.3183068,0.8170573 -1.4002199,0 c -0.441706,0 -0.8188743,0.1504245 -1.1313908,0.4508465 C 2.1559467,5.2894416 2,5.6514528 2,6.0761718 l 0,5.3857422 c 0,0.424719 0.1559466,0.78689 0.4683892,1.087239 C 2.7809057,12.849663 3.1580741,13 3.59978,13 l 8.80044,0 c 0.441691,0 0.818866,-0.150337 1.131391,-0.450847 C 13.844046,12.248804 14,11.886633 14,11.461914 L 14,6.0761718 C 14.000051,5.6514528 13.844053,5.2894415 13.531611,4.9889324 13.219086,4.6885105 12.841926,4.5380859 12.40022,4.5380859 l -1.40022,0 -0.318307,-0.8170573 C 10.602527,3.5247496 10.456793,3.3554979 10.246289,3.2132162 10.035875,3.0709927 9.8206297,3 9.59978,3 L 6.4002198,3 Z m 1.59978,3.0777995 c 0.7708598,0 1.4295221,0.2625794 1.9774605,0.789388 0.5479457,0.5268013 0.8229797,1.1614441 0.8229797,1.9026692 0,0.7411593 -0.275108,1.3741603 -0.8229797,1.9010413 -0.5478642,0.526881 -1.2066007,0.791016 -1.9774605,0.791016 -0.7708671,0 -1.4295145,-0.264135 -1.9774601,-0.791016 C 5.4745868,10.14409 5.1995601,9.511016 5.1995602,8.7698567 c 0,-0.7412251 0.275108,-1.3757951 0.8229796,-1.9026692 0.5478641,-0.5268814 1.2065929,-0.789388 1.97746,-0.789388 z m 0,0.9602864 c -0.4958582,0 -0.919474,0.1692372 -1.2715777,0.5078125 -0.3521038,0.3385607 -0.5277624,0.7471568 -0.5277624,1.2239583 0,0.4767873 0.1756586,0.8837703 0.5277624,1.2223303 C 7.0805259,10.330684 7.5041417,10.5 7.9999998,10.5 8.4957767,10.5 8.9194739,10.330684 9.2715777,9.992187 9.623674,9.653627 9.79934,9.246644 9.79934,8.7698567 9.79934,8.2930552 9.623674,7.8844591 9.2715777,7.5458984 8.9194739,7.2073231 8.4957767,7.0380859 7.9999998,7.0380859 Z"
     id="path3786"
     inkscape:connector-curvature="0" />
</svg>

<svg xmlns="http://www.w3.org/2000/svg" viewBox="0 0 16 16">
  <path fill="#bebebe" d="M6.4 3c-.22 0-.436.071-.646.213a1.13 1.13 0 0 0-.436.508L5 4.538H3.6c-.442 0-.82.15-1.132.45A1.46 1.46 0 0 0 2 6.077v5.386c0 .425.156.787.468 1.087.313.3.69.451 1.132.451h8.8c.442 0 .82-.15 1.132-.45.312-.301.468-.663.468-1.088V6.076c0-.425-.156-.787-.468-1.087-.313-.3-.69-.45-1.132-.45H11l-.318-.818a1.129 1.129 0 0 0-.436-.508A1.141 1.141 0 0 0 9.6 3zM8 6.078c.77 0 1.43.262 1.977.79.548.526.823 1.16.823 1.902 0 .741-.275 1.374-.823 1.9A2.75 2.75 0 0 1 8 11.463a2.75 2.75 0 0 1-1.977-.791C5.475 10.144 5.2 9.51 5.2 8.77c0-.741.275-1.376.823-1.903A2.75 2.75 0 0 1 8 6.077zm0 .96c-.496 0-.92.17-1.272.508a1.637 1.637 0 0 0-.527 1.224c0 .477.175.884.527 1.222.353.339.776.508 1.272.508s.92-.17 1.272-.508.527-.745.527-1.222-.175-.886-.527-1.224A1.768 1.768 0 0 0 8 7.038z"/>
</svg>
